status/48/notification-audio-pause.svg

<?xml version="1.0" encoding="UTF-8" standalone="no"?>
<!-- Created with Inkscape (http://www.inkscape.org/) -->

<svg
   xmlns:svg="http://www.w3.org/2000/svg"
   xmlns="http://www.w3.org/2000/svg"
   xmlns:xlink="http://www.w3.org/1999/xlink"
   version="1.1"
   width="48"
   height="48"
   id="svg3215">
  <defs
     id="defs3217">
    <linearGradient
       x1="12.35"
       y1="13.958842"
       x2="12.35"
       y2="44.971333"
       id="linearGradient3191"
       xlink:href="#linearGradient5106"
       gradientUnits="userSpaceOnUse"
       gradientTransform="matrix(0.9728815,0,0,1.0001163,0.9849114,-0.5027795)" />
    <linearGradient
       x1="10.728143"
       y1="4.4554315"
       x2="10.728143"
       y2="42.596779"
       id="linearGradient3193"
       xlink:href="#linearGradient2782"
       gradientUnits="userSpaceOnUse"
       gradientTransform="matrix(1.040837,0,0,1.0332075,-1.5095621,-1.5777864)" />
    <linearGradient
       id="linearGradient5106">
      <stop
         id="stop5108"
         style="stop-color:#729fcf;stop-opacity:1"
         offset="0" />
      <stop
         id="stop5110"
         style="stop-color:#386ea6;stop-opacity:1"
         offset="1" />
    </linearGradient>
    <linearGradient
       x1="12.35"
       y1="13.958842"
       x2="12.35"
       y2="44.971333"
       id="linearGradient3211"
       xlink:href="#linearGradient5106"
       gradientUnits="userSpaceOnUse"
       gradientTransform="matrix(0.9728815,0,0,1.0001163,22.984912,-0.5027795)" />
    <linearGradient
       id="linearGradient2782">
      <stop
         id="stop2784"
         style="stop-color:white;stop-opacity:1"
         offset="0" />
      <stop
         id="stop2786"
         style="stop-color:white;stop-opacity:0"
         offset="1" />
    </linearGradient>
    <linearGradient
       x1="10.728143"
       y1="4.4554315"
       x2="10.728143"
       y2="42.596779"
       id="linearGradient3213"
       xlink:href="#linearGradient2782"
       gradientUnits="userSpaceOnUse"
       gradientTransform="matrix(1.040837,0,0,1.0332075,20.490438,-1.5777864)" />
  </defs>
  <g
     id="layer1">
    <path
       d="m 5.065179,3.026287 0,40.947425 15.869642,0 0,-40.947425 -15.869642,0 z"
       id="path7449"
       style="fill:url(#linearGradient3191);fill-opacity:1;fill-rule:evenodd;stroke:none;stroke-width:0.99290687;marker:none;visibility:visible;display:inline;overflow:visible" />
    <path
       d="m 5.5507149,3.5507137 0,39.8985703 14.8985701,-0.04727 0,-39.8512963 -14.8985701,0 z"
       id="path7453"
       style="opacity:0.2;fill:none;stroke:url(#linearGradient3193);stroke-width:1.1014297;stroke-linecap:round;stroke-linejoin:miter;stroke-miterlimit:4;stroke-opacity:0.97254902;stroke-dasharray:none;stroke-dashoffset:0;marker:none;visibility:visible;display:inline;overflow:visible" />
    <path
       d="m 27.065179,3.026287 0,40.947425 15.869642,0 0,-40.947425 -15.869642,0 z"
       id="path3195"
       style="fill:url(#linearGradient3211);fill-opacity:1;fill-rule:evenodd;stroke:none;stroke-width:0.99290687;marker:none;visibility:visible;display:inline;overflow:visible" />
    <path
       d="m 27.550715,3.5507137 0,39.8985703 14.89857,-0.04727 0,-39.8512963 -14.89857,0 z"
       id="path3197"
       style="opacity:0.2;fill:none;stroke:url(#linearGradient3213);stroke-width:1.1014297;stroke-linecap:round;stroke-linejoin:miter;stroke-miterlimit:4;stroke-opacity:0.97254902;stroke-dasharray:none;stroke-dashoffset:0;marker:none;visibility:visible;display:inline;overflow:visible" />
  </g>
</svg>

<?xml version="1.0" encoding="UTF-8" standalone="no"?>
<!-- Created with Inkscape (http://www.inkscape.org/) -->
<svg
   xmlns:dc="http://purl.org/dc/elements/1.1/"
   xmlns:cc="http://creativecommons.org/ns#"
   xmlns:rdf="http://www.w3.org/1999/02/22-rdf-syntax-ns#"
   xmlns:svg="http://www.w3.org/2000/svg"
   xmlns="http://www.w3.org/2000/svg"
   xmlns:xlink="http://www.w3.org/1999/xlink"
   xmlns:sodipodi="http://sodipodi.sourceforge.net/DTD/sodipodi-0.dtd"
   xmlns:inkscape="http://www.inkscape.org/namespaces/inkscape"
   width="48px"
   height="48px"
   id="svg3215"
   sodipodi:version="0.32"
   inkscape:version="0.46"
   sodipodi:docname="notification-audio-pause.svg"
   inkscape:output_extension="org.inkscape.output.svg.inkscape">
  <defs
     id="defs3217">
    <linearGradient
       inkscape:collect="always"
       xlink:href="#linearGradient5106"
       id="linearGradient3191"
       gradientUnits="userSpaceOnUse"
       gradientTransform="matrix(0.9728815,0,0,1.0001163,0.9849114,-0.5027795)"
       x1="12.35"
       y1="13.958842"
       x2="12.35"
       y2="44.971333" />
    <linearGradient
       inkscape:collect="always"
       xlink:href="#linearGradient2782"
       id="linearGradient3193"
       gradientUnits="userSpaceOnUse"
       gradientTransform="matrix(1.040837,0,0,1.0332075,-1.5095621,-1.5777864)"
       x1="10.728143"
       y1="4.4554315"
       x2="10.728143"
       y2="42.596779" />
    <linearGradient
       id="linearGradient5106">
      <stop
         id="stop5108"
         offset="0"
         style="stop-color:#729fcf;stop-opacity:1;" />
      <stop
         id="stop5110"
         offset="1"
         style="stop-color:#386ea6;stop-opacity:1;" />
    </linearGradient>
    <linearGradient
       inkscape:collect="always"
       xlink:href="#linearGradient5106"
       id="linearGradient3211"
       gradientUnits="userSpaceOnUse"
       gradientTransform="matrix(0.9728815,0,0,1.0001163,22.984912,-0.5027795)"
       x1="12.35"
       y1="13.958842"
       x2="12.35"
       y2="44.971333" />
    <linearGradient
       id="linearGradient2782">
      <stop
         id="stop2784"
         offset="0"
         style="stop-color:white;stop-opacity:1;" />
      <stop
         id="stop2786"
         offset="1"
         style="stop-color:white;stop-opacity:0;" />
    </linearGradient>
    <linearGradient
       inkscape:collect="always"
       xlink:href="#linearGradient2782"
       id="linearGradient3213"
       gradientUnits="userSpaceOnUse"
       gradientTransform="matrix(1.040837,0,0,1.0332075,20.490438,-1.5777864)"
       x1="10.728143"
       y1="4.4554315"
       x2="10.728143"
       y2="42.596779" />
  </defs>
  <sodipodi:namedview
     id="base"
     pagecolor="#ffffff"
     bordercolor="#666666"
     borderopacity="1.0"
     inkscape:pageopacity="0.0"
     inkscape:pageshadow="2"
     inkscape:zoom="7"
     inkscape:cx="24"
     inkscape:cy="24"
     inkscape:current-layer="layer1"
     showgrid="true"
     inkscape:grid-bbox="true"
     inkscape:document-units="px"
     inkscape:window-width="640"
     inkscape:window-height="679"
     inkscape:window-x="798"
     inkscape:window-y="132" />
  <metadata
     id="metadata3220">
    <rdf:RDF>
      <cc:Work
         rdf:about="">
        <dc:format>image/svg+xml</dc:format>
        <dc:type
           rdf:resource="http://purl.org/dc/dcmitype/StillImage" />
      </cc:Work>
    </rdf:RDF>
  </metadata>
  <g
     id="layer1"
     inkscape:label="Layer 1"
     inkscape:groupmode="layer">
    <path
       style="fill:url(#linearGradient3191);fill-opacity:1;fill-rule:evenodd;stroke:none;stroke-width:0.99290687000000000;stroke-linecap:round;stroke-linejoin:round;marker:none;marker-start:none;marker-mid:none;marker-end:none;stroke-miterlimit:4;stroke-dasharray:none;stroke-dashoffset:0;stroke-opacity:1;visibility:visible;display:inline;overflow:visible"
       d="M 5.065179,3.026287 L 5.065179,43.973712 L 20.934821,43.973712 L 20.934821,3.026287 L 5.065179,3.026287 z"
       id="path7449"
       inkscape:r_cx="true"
       inkscape:r_cy="true" />
    <path
       inkscape:r_cy="true"
       inkscape:r_cx="true"
       id="path7453"
       d="M 5.5507149,3.5507137 L 5.5507149,43.449284 L 20.449285,43.40201 L 20.449285,3.5507137 L 5.5507149,3.5507137 z"
       style="opacity:0.20000000000000001;fill:none;fill-opacity:1;fill-rule:evenodd;stroke:url(#linearGradient3193);stroke-width:1.10142969999999996;stroke-linecap:round;stroke-linejoin:miter;marker:none;marker-start:none;marker-mid:none;marker-end:none;stroke-miterlimit:4;stroke-dasharray:none;stroke-dashoffset:0;stroke-opacity:0.97254901999999999;visibility:visible;display:inline;overflow:visible"
       sodipodi:nodetypes="ccccc" />
    <path
       style="fill:url(#linearGradient3211);fill-opacity:1;fill-rule:evenodd;stroke:none;stroke-width:0.99290687000000000;stroke-linecap:round;stroke-linejoin:round;marker:none;marker-start:none;marker-mid:none;marker-end:none;stroke-miterlimit:4;stroke-dasharray:none;stroke-dashoffset:0;stroke-opacity:1;visibility:visible;display:inline;overflow:visible"
       d="M 27.065179,3.026287 L 27.065179,43.973712 L 42.934821,43.973712 L 42.934821,3.026287 L 27.065179,3.026287 z"
       id="path3195"
       inkscape:r_cx="true"
       inkscape:r_cy="true" />
    <path
       inkscape:r_cy="true"
       inkscape:r_cx="true"
       id="path3197"
       d="M 27.550715,3.5507137 L 27.550715,43.449284 L 42.449285,43.40201 L 42.449285,3.5507137 L 27.550715,3.5507137 z"
       style="opacity:0.20000000000000001;fill:none;fill-opacity:1;fill-rule:evenodd;stroke:url(#linearGradient3213);stroke-width:1.10142969999999996;stroke-linecap:round;stroke-linejoin:miter;marker:none;marker-start:none;marker-mid:none;marker-end:none;stroke-miterlimit:4;stroke-dasharray:none;stroke-dashoffset:0;stroke-opacity:0.97254901999999999;visibility:visible;display:inline;overflow:visible"
       sodipodi:nodetypes="ccccc" />
  </g>
</svg>
